X: 343
T: Xia liulin
%%abc-version 2.0
%%abcx-abcm2ps-target-version 5.9.1 (29 Sep 2008)
%%abc-creator hum2abc beta
%%abcx-conversion-date 2013/10/02 07:52:30
%%abc-edited-by Helmut Schaffrath
%%humdrum-veritas 328305365
%%humdrum-veritas-data 2862523763
%%continueall 1
%%barnumbers 0
L: 1/8
M: 2/4
K: F
c c/ c/ G c [I:setbarnb 1]| 
F DC2 | 
c c c d | 
c/ G A/G2 | 
G A c d/ c/ | 
c A/ G/F2 | 
c G/ F/ E D | 
C4 |]  



